X: 4183
T: Blue Ribbon, The
R: polka
M: 2/4
K: Dmajor
A|[A2d2] e/f/g|a2 f2|g2 e>g|ff d>B|
AF/A/ d/e/f/g/|aa f2|gg/e/ f>e|df d>B|
A2 d/e/f/g/|aa f/^e/f/a/|gg e/^d/e/g/|ff d>B|
A/A/F/A/ d/e/f/g/|aa f>a|gg/e/ f/g/f/e/|df d2||
af dc/d/|eA A/B/=c/A/|dc A>g|fd d/c/d|
af dc/d/|eA A/B/=c/A/|dc AF|G2 G/F/G|
af dc/d/|eA A/B/=c|dc A>g|fd d/c/d/f/|
a2 dc/d/|eA- A/B/=c/A/|dc/c/ A/A/F|G2 FG||

